X: 34356
T: Return To Minnesota
R: reel
M: 4/4
K: Amixolydian
|:A,B,B,A, B,CDB,|CEDC DCA,G,|A,B,B,A, B,CDB,|CEDC G,3B,|
A,2 (3CB,A, B,CDB,|CEDC DCA,G,|A,B,B,A, B,CDB,|EAGF EAGF:|
|:ABcd efge|agfd edc/d/e|ABcd efge|addd bddd|ABcd efge|
agfd ede/f/g|1 a3b- b2a2-|agfd eee2:|2 a2ge edec|dcAF DEDC||

